src/lib/packages/icons/src/assets/line/message-search.svg

<svg width="24" height="24" viewBox="0 0 24 24" fill="none" xmlns="http://www.w3.org/2000/svg">
<path d="M18 2.25H6C3.582 2.25 2.25 3.582 2.25 6V21C2.25 21.303 2.43289 21.577 2.71289 21.693C2.80589 21.732 2.903 21.75 3 21.75C3.195 21.75 3.38703 21.674 3.53003 21.53L6.31006 18.75H18C20.418 18.75 21.75 17.418 21.75 15V6C21.75 3.582 20.418 2.25 18 2.25ZM20.25 15C20.25 16.577 19.577 17.25 18 17.25H6C5.801 17.25 5.60997 17.329 5.46997 17.47L3.75 19.1899V6C3.75 4.423 4.423 3.75 6 3.75H18C19.577 3.75 20.25 4.423 20.25 6V15ZM14.481 11.92C14.859 11.343 15.083 10.656 15.083 9.91602C15.083 7.89502 13.438 6.24902 11.417 6.24902C9.39499 6.24902 7.75 7.89402 7.75 9.91602C7.75 11.938 9.39499 13.583 11.417 13.583C12.157 13.583 12.8439 13.359 13.4199 12.98L14.969 14.5291C15.115 14.6751 15.307 14.749 15.499 14.749C15.691 14.749 15.8831 14.6761 16.0291 14.5291C16.3221 14.2361 16.3221 13.761 16.0291 13.468L14.481 11.92ZM9.25 9.91699C9.25 8.72199 10.222 7.75 11.417 7.75C12.611 7.75 13.583 8.72199 13.583 9.91699C13.583 11.112 12.611 12.084 11.417 12.084C10.222 12.083 9.25 11.111 9.25 9.91699Z" fill="currentColor"/>
</svg>

<svg xmlns="http://www.w3.org/2000/svg" width="24" height="24" fill="none"><path fill="currentColor" d="M18 2.25H6C3.582 2.25 2.25 3.582 2.25 6v15a.75.75 0 0 0 1.28.53l2.78-2.78H18c2.418 0 3.75-1.332 3.75-3.75V6c0-2.418-1.332-3.75-3.75-3.75ZM20.25 15c0 1.577-.673 2.25-2.25 2.25H6a.747.747 0 0 0-.53.22l-1.72 1.72V6c0-1.577.673-2.25 2.25-2.25h12c1.577 0 2.25.673 2.25 2.25v9Zm-5.769-3.08a3.645 3.645 0 0 0 .602-2.004 3.672 3.672 0 0 0-3.666-3.667A3.671 3.671 0 0 0 7.75 9.916a3.671 3.671 0 0 0 3.667 3.667c.74 0 1.427-.224 2.003-.603l1.549 1.55a.748.748 0 0 0 1.06 0 .75.75 0 0 0 0-1.062l-1.548-1.548ZM9.25 9.917a2.17 2.17 0 0 1 2.167-2.167 2.17 2.17 0 0 1 2.166 2.167 2.17 2.17 0 0 1-2.166 2.167A2.17 2.17 0 0 1 9.25 9.917Z"/></svg>
